public/assets/img/logo/logo-2.svg

<svg fill="none" height="28" viewBox="0 0 136 28" width="136" xmlns="http://www.w3.org/2000/svg"><g fill="#5864ff"><path d="m22.8452 10.7196-5.2134 5.0377-1.2887-1.2887c-.6444-.6444-1.6402-.6444-2.2845 0-.6444.6443-.6444 1.6402 0 2.2845l2.2845 2.2845c.3514.3515.8201.4687 1.2887.4687s.9958-.1758 1.4644-.4687l6.0335-5.8577c.6443-.6444.6443-1.6402 0-2.2845-.7029-.6444-1.6402-.8201-2.2845-.1758z"/><path d="m34.3849 8.78661c-1.6401-1.8159-3.9246-3.1046-6.3263-3.57322-1.2887-2.10879-3.3975-3.74896-5.682-4.569039-1.113-.468619-2.2846-.644351-3.5733-.644351-5.8577 0-10.7782 4.56904-11.07108 10.251-4.45189.6444-7.73222 4.3934-7.73222 8.7867 0 4.9205 4.10042 8.9623 8.96234 8.9623h16.92886c6.385 0 11.5983-5.2134 11.5983-11.5398 0-2.8117-1.1129-5.5648-3.1046-7.67359zm-8.6108 16.10879h-16.98749c-3.28033 0-5.68201-2.4603-5.68201-5.682 0-3.2218 2.63599-5.682 5.68201-5.682h1.93309v-2.2845c0-4.39334 3.5732-7.96657 7.9665-7.96657.9958 0 1.8159.17574 2.636.46862 1.8159.64435 3.3975 1.93306 4.3933 3.74896l.4686.82008.8201.17573c1.933.17574 3.9247 1.11297 5.2134 2.63598 1.4644 1.6402 2.2845 3.5732 2.2845 5.682-.2929 4.3347-4.0418 8.0837-8.728 8.0837z"/><path d="m57.0703 17.2422c0 1.6172-.6015 2.8555-1.8047 3.7148-1.1953.8516-2.9531 1.2774-5.2734 1.2774-2.1172 0-3.7774-.375-4.9805-1.125s-1.9765-1.8867-2.3203-3.4102l3.3398-.5508c.2266.875.668 1.5118 1.3243 1.9102.6562.3906 1.5664.5859 2.7304.5859 2.4141 0 3.6211-.7343 3.6211-2.2031 0-.4687-.1406-.8555-.4218-1.1602-.2735-.3046-.6641-.5585-1.1719-.7617-.5-.2031-1.4649-.4492-2.8945-.7383-1.2344-.289-2.0938-.5195-2.5782-.6914-.4844-.1796-.9218-.3867-1.3125-.621-.3906-.2422-.7226-.5313-.9961-.8672-.2734-.336-.4882-.7305-.6445-1.1836-.1484-.4532-.2227-.9727-.2227-1.55862 0-1.49219.5586-2.63282 1.6758-3.42188 1.125-.79688 2.7578-1.19531 4.8985-1.19531 2.0468 0 3.582.32031 4.6054.96093 1.0313.64063 1.6953 1.69922 1.9922 3.17579l-3.3515.45703c-.1719-.71094-.5235-1.2461-1.0547-1.60547-.5235-.35938-1.2774-.53906-2.2617-.53906-2.0938 0-3.1407.65625-3.1407 1.96875 0 .42964.1094.78124.3281 1.05464.2266.2735.5586.5079.9961.7032.4375.1875 1.3243.4258 2.6602.7148 1.5859.336 2.7187.6484 3.3984.9375.6875.2813 1.2305.6133 1.6289.9961.3985.375.7032.8281.9141 1.3594.2109.5234.3164 1.1289.3164 1.8164zm5.543 4.9922c-1.2266 0-2.1836-.3321-2.8711-.9961-.6875-.6719-1.0313-1.6133-1.0313-2.8242 0-1.3125.4258-2.3125 1.2774-3 .8594-.6875 2.1015-1.0391 3.7265-1.0547l2.7305-.0469v-.6445c0-.8282-.1445-1.4414-.4336-1.8399-.289-.4062-.7617-.6093-1.4179-.6093-.6094 0-1.0586.1406-1.3477.4218-.2813.2735-.457.7305-.5273 1.3711l-3.4336-.164c.2109-1.2344.7734-2.168 1.6875-2.8008.9218-.64065 2.1757-.96096 3.7617-.96096 1.6015 0 2.8359.39453 3.7031 1.18356.8672.7891 1.3008 1.9102 1.3008 3.3633v4.6172c0 .7109.0781 1.2031.2344 1.4766.164.2656.4335.3984.8085.3984.25 0 .4922-.0234.7266-.0703v1.7812c-.1953.0469-.3711.0899-.5273.1289-.1563.0391-.3125.0704-.4688.0938-.1562.0234-.3242.043-.5039.0586-.1719.0156-.375.0234-.6094.0234-.8281 0-1.4414-.2031-1.8398-.6094-.3906-.4062-.625-1.0039-.7031-1.7929h-.0703c-.9219 1.664-2.3125 2.4961-4.1719 2.4961zm3.832-6.1055-1.6875.0234c-.7656.0313-1.3086.1172-1.6289.2579-.3203.1328-.5664.3398-.7383.621-.164.2813-.2461.6563-.2461 1.125 0 .6016.1367 1.0508.4102 1.3477.2812.2891.6523.4336 1.1133.4336.5156 0 .9843-.1406 1.4062-.4219.4297-.2812.7656-.6679 1.0078-1.1601.2422-.5.3633-1.0274.3633-1.5821zm9.5274 6.1055c-1.2266 0-2.1836-.3321-2.8711-.9961-.6875-.6719-1.0313-1.6133-1.0313-2.8242 0-1.3125.4258-2.3125 1.2774-3 .8593-.6875 2.1015-1.0391 3.7265-1.0547l2.7305-.0469v-.6445c0-.8282-.1445-1.4414-.4336-1.8399-.2891-.4062-.7617-.6093-1.418-.6093-.6093 0-1.0586.1406-1.3476.4218-.2813.2735-.4571.7305-.5274 1.3711l-3.4336-.164c.211-1.2344.7735-2.168 1.6875-2.8008.9219-.64065 2.1758-.96096 3.7618-.96096 1.6015 0 2.8359.39453 3.7031 1.18356.8672.7891 1.3008 1.9102 1.3008 3.3633v4.6172c0 .7109.0781 1.2031.2343 1.4766.1641.2656.4336.3984.8086.3984.25 0 .4922-.0234.7266-.0703v1.7812c-.1953.0469-.3711.0899-.5274.1289-.1562.0391-.3125.0704-.4687.0938-.1563.0234-.3242.043-.5039.0586-.1719.0156-.375.0234-.6094.0234-.8281 0-1.4414-.2031-1.8398-.6094-.3907-.4062-.625-1.0039-.7032-1.7929h-.0703c-.9218 1.664-2.3125 2.4961-4.1718 2.4961zm3.832-6.1055-1.6875.0234c-.7656.0313-1.3086.1172-1.6289.2579-.3203.1328-.5664.3398-.7383.621-.1641.2813-.2461.6563-.2461 1.125 0 .6016.1367 1.0508.4102 1.3477.2812.2891.6523.4336 1.1132.4336.5157 0 .9844-.1406 1.4063-.4219.4297-.2812.7656-.6679 1.0078-1.1601.2422-.5.3633-1.0274.3633-1.5821zm19.9922 1.1133c0 1.6172-.6016 2.8555-1.8047 3.7148-1.1953.8516-2.9531 1.2774-5.2734 1.2774-2.1172 0-3.7774-.375-4.9805-1.125s-1.9766-1.8867-2.3203-3.4102l3.3398-.5508c.2266.875.668 1.5118 1.3242 1.9102.6563.3906 1.5664.5859 2.7305.5859 2.4141 0 3.6211-.7343 3.6211-2.2031 0-.4687-.1406-.8555-.4219-1.1602-.2734-.3046-.664-.5585-1.1719-.7617-.5-.2031-1.4648-.4492-2.8945-.7383-1.2344-.289-2.0937-.5195-2.5781-.6914-.4844-.1796-.9219-.3867-1.3125-.621-.3906-.2422-.7227-.5313-.9961-.8672-.2734-.336-.4883-.7305-.6445-1.1836-.1485-.4532-.2227-.9727-.2227-1.55862 0-1.49219.5586-2.63282 1.6758-3.42188 1.125-.79688 2.7578-1.19531 4.8984-1.19531 2.0469 0 3.5821.32031 4.6055.96093 1.0312.64063 1.6953 1.69922 1.9922 3.17579l-3.3516.45703c-.1719-.71094-.5234-1.2461-1.0547-1.60547-.5234-.35938-1.2773-.53906-2.2617-.53906-2.0937 0-3.1406.65625-3.1406 1.96875 0 .42964.1094.78124.3281 1.05464.2266.2735.5586.5079.9961.7032.4375.1875 1.3242.4258 2.6602.7148 1.5859.336 2.7187.6484 3.3984.9375.6875.2813 1.2305.6133 1.6289.9961.3984.375.7031.8281.9141 1.3594.2109.5234.3164 1.1289.3164 1.8164zm14.6131-1.6406c0 2.1172-.426 3.7539-1.277 4.9101-.844 1.1485-2.039 1.7227-3.586 1.7227-.891 0-1.668-.1914-2.332-.5742-.656-.3907-1.16-.9493-1.512-1.6758h-.07c.047.2344.07.9453.07 2.1328v4.8633h-3.293v-14.7422c0-1.1953-.031-2.168-.094-2.91799h3.2c.039.14063.07.41797.093.83199.032.4141.047.8243.047 1.2305h.047c.742-1.55468 2.094-2.33202 4.055-2.33202 1.476 0 2.621.57031 3.433 1.71092.813 1.1328 1.219 2.7461 1.219 4.8399zm-3.433 0c0-2.8438-.872-4.2657-2.614-4.2657-.875 0-1.547.3829-2.015 1.1485-.461.7656-.692 1.8359-.692 3.2109 0 1.3672.231 2.4258.692 3.1758.468.7422 1.132 1.1133 1.992 1.1133 1.758 0 2.637-1.461 2.637-4.3828zm9.035 6.6328c-1.227 0-2.184-.3321-2.871-.9961-.688-.6719-1.032-1.6133-1.032-2.8242 0-1.3125.426-2.3125 1.278-3 .859-.6875 2.101-1.0391 3.726-1.0547l2.731-.0469v-.6445c0-.8282-.145-1.4414-.434-1.8399-.289-.4062-.762-.6093-1.418-.6093-.609 0-1.058.1406-1.347.4218-.282.2735-.457.7305-.528 1.3711l-3.433-.164c.211-1.2344.773-2.168 1.687-2.8008.922-.64065 2.176-.96096 3.762-.96096 1.601 0 2.836.39453 3.703 1.18356.867.7891 1.301 1.9102 1.301 3.3633v4.6172c0 .7109.078 1.2031.234 1.4766.164.2656.434.3984.809.3984.25 0 .492-.0234.726-.0703v1.7812c-.195.0469-.371.0899-.527.1289-.156.0391-.313.0704-.469.0938s-.324.043-.504.0586c-.172.0156-.375.0234-.609.0234-.828 0-1.442-.2031-1.84-.6094-.391-.4062-.625-1.0039-.703-1.7929h-.07c-.922 1.664-2.313 2.4961-4.172 2.4961zm3.832-6.1055-1.688.0234c-.765.0313-1.308.1172-1.629.2579-.32.1328-.566.3398-.738.621-.164.2813-.246.6563-.246 1.125 0 .6016.137 1.0508.41 1.3477.281.2891.652.4336 1.113.4336.516 0 .985-.1406 1.407-.4219.429-.2812.765-.6679 1.007-1.1601.243-.5.364-1.0274.364-1.5821zm6.597 5.8711v-17.39062h3.293v17.39062z"/></g></svg>

<svg width="136" height="28" viewBox="0 0 136 28" fill="none" xmlns="http://www.w3.org/2000/svg">
<path d="M22.8451 10.7187L17.6317 15.7564L16.343 14.4677C15.6986 13.8233 14.7028 13.8233 14.0585 14.4677C13.4141 15.112 13.4141 16.1079 14.0585 16.7522L16.343 19.0367C16.6944 19.3882 17.1631 19.5054 17.6317 19.5054C18.1003 19.5054 18.6275 19.3296 19.0961 19.0367L25.1296 13.179C25.7739 12.5346 25.7739 11.5388 25.1296 10.8945C24.4267 10.2501 23.4894 10.0744 22.8451 10.7187Z" fill="#962E40"/>
<path d="M34.3849 8.78661C32.7448 6.97071 30.4603 5.68201 28.0586 5.21339C26.7699 3.1046 24.6611 1.46443 22.3766 0.644351C21.2636 0.175732 20.092 0 18.8033 0C12.9456 0 8.0251 4.56904 7.73222 10.251C3.28033 10.8954 0 14.6444 0 19.0377C0 23.9582 4.10042 28 8.96234 28H25.8912C32.2762 28 37.4895 22.7866 37.4895 16.4602C37.4895 13.6485 36.3766 10.8954 34.3849 8.78661V8.78661ZM25.7741 24.8954H8.78661C5.50628 24.8954 3.1046 22.4351 3.1046 19.2134C3.1046 15.9916 5.74059 13.5314 8.78661 13.5314H10.7197V11.2469C10.7197 6.85356 14.2929 3.28033 18.6862 3.28033C19.682 3.28033 20.5021 3.45607 21.3222 3.74895C23.1381 4.3933 24.7197 5.68201 25.7155 7.49791L26.1841 8.31799L27.0042 8.49372C28.9372 8.66946 30.9289 9.60669 32.2176 11.1297C33.682 12.7699 34.5021 14.7029 34.5021 16.8117C34.2092 21.1464 30.4603 24.8954 25.7741 24.8954V24.8954Z" fill="#962E40"/>
<path d="M57.0703 17.2422C57.0703 18.8594 56.4688 20.0977 55.2656 20.957C54.0703 21.8086 52.3125 22.2344 49.9922 22.2344C47.875 22.2344 46.2148 21.8594 45.0117 21.1094C43.8086 20.3594 43.0352 19.2227 42.6914 17.6992L46.0312 17.1484C46.2578 18.0234 46.6992 18.6602 47.3555 19.0586C48.0117 19.4492 48.9219 19.6445 50.0859 19.6445C52.5 19.6445 53.707 18.9102 53.707 17.4414C53.707 16.9727 53.5664 16.5859 53.2852 16.2812C53.0117 15.9766 52.6211 15.7227 52.1133 15.5195C51.6133 15.3164 50.6484 15.0703 49.2188 14.7812C47.9844 14.4922 47.125 14.2617 46.6406 14.0898C46.1562 13.9102 45.7188 13.7031 45.3281 13.4688C44.9375 13.2266 44.6055 12.9375 44.332 12.6016C44.0586 12.2656 43.8438 11.8711 43.6875 11.418C43.5391 10.9648 43.4648 10.4453 43.4648 9.85938C43.4648 8.36718 44.0234 7.22656 45.1406 6.4375C46.2656 5.64062 47.8984 5.24219 50.0391 5.24219C52.0859 5.24219 53.6211 5.5625 54.6445 6.20312C55.6758 6.84375 56.3398 7.90234 56.6367 9.37891L53.2852 9.83594C53.1133 9.125 52.7617 8.58983 52.2305 8.23046C51.707 7.87108 50.9531 7.69141 49.9688 7.69141C47.875 7.69141 46.8281 8.34766 46.8281 9.66016C46.8281 10.0898 46.9375 10.4414 47.1562 10.7148C47.3828 10.9883 47.7148 11.2227 48.1523 11.418C48.5898 11.6055 49.4766 11.8438 50.8125 12.1328C52.3984 12.4688 53.5312 12.7812 54.2109 13.0703C54.8984 13.3516 55.4414 13.6836 55.8398 14.0664C56.2383 14.4414 56.543 14.8945 56.7539 15.4258C56.9648 15.9492 57.0703 16.5547 57.0703 17.2422V17.2422ZM62.6133 22.2344C61.3867 22.2344 60.4297 21.9023 59.7422 21.2383C59.0547 20.5664 58.7109 19.625 58.7109 18.4141C58.7109 17.1016 59.1367 16.1016 59.9883 15.4141C60.8477 14.7266 62.0898 14.375 63.7148 14.3594L66.4453 14.3125V13.668C66.4453 12.8398 66.3008 12.2266 66.0117 11.8281C65.7227 11.4219 65.25 11.2188 64.5938 11.2188C63.9844 11.2188 63.5352 11.3594 63.2461 11.6406C62.9648 11.9141 62.7891 12.3711 62.7188 13.0117L59.2852 12.8477C59.4961 11.6133 60.0586 10.6797 60.9727 10.0469C61.8945 9.40625 63.1484 9.08594 64.7344 9.08594C66.3359 9.08594 67.5703 9.48046 68.4375 10.2695C69.3047 11.0586 69.7383 12.1797 69.7383 13.6328V18.25C69.7383 18.9609 69.8164 19.4531 69.9727 19.7266C70.1367 19.9922 70.4062 20.125 70.7812 20.125C71.0312 20.125 71.2734 20.1016 71.5078 20.0547V21.8359C71.3125 21.8828 71.1367 21.9258 70.9805 21.9648C70.8242 22.0039 70.668 22.0352 70.5117 22.0586C70.3555 22.082 70.1875 22.1016 70.0078 22.1172C69.8359 22.1328 69.6328 22.1406 69.3984 22.1406C68.5703 22.1406 67.957 21.9375 67.5586 21.5312C67.168 21.125 66.9336 20.5273 66.8555 19.7383H66.7852C65.8633 21.4023 64.4727 22.2344 62.6133 22.2344ZM66.4453 16.1289L64.7578 16.1523C63.9922 16.1836 63.4492 16.2695 63.1289 16.4102C62.8086 16.543 62.5625 16.75 62.3906 17.0312C62.2266 17.3125 62.1445 17.6875 62.1445 18.1562C62.1445 18.7578 62.2812 19.207 62.5547 19.5039C62.8359 19.793 63.207 19.9375 63.668 19.9375C64.1836 19.9375 64.6523 19.7969 65.0742 19.5156C65.5039 19.2344 65.8398 18.8477 66.082 18.3555C66.3242 17.8555 66.4453 17.3281 66.4453 16.7734V16.1289ZM75.9727 22.2344C74.7461 22.2344 73.7891 21.9023 73.1016 21.2383C72.4141 20.5664 72.0703 19.625 72.0703 18.4141C72.0703 17.1016 72.4961 16.1016 73.3477 15.4141C74.207 14.7266 75.4492 14.375 77.0742 14.3594L79.8047 14.3125V13.668C79.8047 12.8398 79.6602 12.2266 79.3711 11.8281C79.082 11.4219 78.6094 11.2188 77.9531 11.2188C77.3438 11.2188 76.8945 11.3594 76.6055 11.6406C76.3242 11.9141 76.1484 12.3711 76.0781 13.0117L72.6445 12.8477C72.8555 11.6133 73.418 10.6797 74.332 10.0469C75.2539 9.40625 76.5078 9.08594 78.0938 9.08594C79.6953 9.08594 80.9297 9.48046 81.7969 10.2695C82.6641 11.0586 83.0977 12.1797 83.0977 13.6328V18.25C83.0977 18.9609 83.1758 19.4531 83.332 19.7266C83.4961 19.9922 83.7656 20.125 84.1406 20.125C84.3906 20.125 84.6328 20.1016 84.8672 20.0547V21.8359C84.6719 21.8828 84.4961 21.9258 84.3398 21.9648C84.1836 22.0039 84.0273 22.0352 83.8711 22.0586C83.7148 22.082 83.5469 22.1016 83.3672 22.1172C83.1953 22.1328 82.9922 22.1406 82.7578 22.1406C81.9297 22.1406 81.3164 21.9375 80.918 21.5312C80.5273 21.125 80.293 20.5273 80.2148 19.7383H80.1445C79.2227 21.4023 77.832 22.2344 75.9727 22.2344V22.2344ZM79.8047 16.1289L78.1172 16.1523C77.3516 16.1836 76.8086 16.2695 76.4883 16.4102C76.168 16.543 75.9219 16.75 75.75 17.0312C75.5859 17.3125 75.5039 17.6875 75.5039 18.1562C75.5039 18.7578 75.6406 19.207 75.9141 19.5039C76.1953 19.793 76.5664 19.9375 77.0273 19.9375C77.543 19.9375 78.0117 19.7969 78.4336 19.5156C78.8633 19.2344 79.1992 18.8477 79.4414 18.3555C79.6836 17.8555 79.8047 17.3281 79.8047 16.7734V16.1289ZM99.7969 17.2422C99.7969 18.8594 99.1953 20.0977 97.9922 20.957C96.7969 21.8086 95.0391 22.2344 92.7188 22.2344C90.6016 22.2344 88.9414 21.8594 87.7383 21.1094C86.5352 20.3594 85.7617 19.2227 85.418 17.6992L88.7578 17.1484C88.9844 18.0234 89.4258 18.6602 90.082 19.0586C90.7383 19.4492 91.6484 19.6445 92.8125 19.6445C95.2266 19.6445 96.4336 18.9102 96.4336 17.4414C96.4336 16.9727 96.293 16.5859 96.0117 16.2812C95.7383 15.9766 95.3477 15.7227 94.8398 15.5195C94.3398 15.3164 93.375 15.0703 91.9453 14.7812C90.7109 14.4922 89.8516 14.2617 89.3672 14.0898C88.8828 13.9102 88.4453 13.7031 88.0547 13.4688C87.6641 13.2266 87.332 12.9375 87.0586 12.6016C86.7852 12.2656 86.5703 11.8711 86.4141 11.418C86.2656 10.9648 86.1914 10.4453 86.1914 9.85938C86.1914 8.36718 86.75 7.22656 87.8672 6.4375C88.9922 5.64062 90.625 5.24219 92.7656 5.24219C94.8125 5.24219 96.3477 5.5625 97.3711 6.20312C98.4023 6.84375 99.0664 7.90234 99.3633 9.37891L96.0117 9.83594C95.8398 9.125 95.4883 8.58983 94.957 8.23046C94.4336 7.87108 93.6797 7.69141 92.6953 7.69141C90.6016 7.69141 89.5547 8.34766 89.5547 9.66016C89.5547 10.0898 89.6641 10.4414 89.8828 10.7148C90.1094 10.9883 90.4414 11.2227 90.8789 11.418C91.3164 11.6055 92.2031 11.8438 93.5391 12.1328C95.125 12.4688 96.2578 12.7812 96.9375 13.0703C97.625 13.3516 98.168 13.6836 98.5664 14.0664C98.9648 14.4414 99.2695 14.8945 99.4805 15.4258C99.6914 15.9492 99.7969 16.5547 99.7969 17.2422V17.2422ZM114.41 15.6016C114.41 17.7188 113.984 19.3555 113.133 20.5117C112.289 21.6602 111.094 22.2344 109.547 22.2344C108.656 22.2344 107.879 22.043 107.215 21.6602C106.559 21.2695 106.055 20.7109 105.703 19.9844H105.633C105.68 20.2188 105.703 20.9297 105.703 22.1172V26.9805H102.41V12.2383C102.41 11.043 102.379 10.0703 102.316 9.3203H105.516C105.555 9.46093 105.586 9.73828 105.609 10.1523C105.641 10.5664 105.656 10.9766 105.656 11.3828H105.703C106.445 9.82812 107.797 9.05078 109.758 9.05078C111.234 9.05078 112.379 9.62108 113.191 10.7617C114.004 11.8945 114.41 13.5078 114.41 15.6016V15.6016ZM110.977 15.6016C110.977 12.7578 110.105 11.3359 108.363 11.3359C107.488 11.3359 106.816 11.7188 106.348 12.4844C105.887 13.25 105.656 14.3203 105.656 15.6953C105.656 17.0625 105.887 18.1211 106.348 18.8711C106.816 19.6133 107.48 19.9844 108.34 19.9844C110.098 19.9844 110.977 18.5234 110.977 15.6016ZM120.012 22.2344C118.785 22.2344 117.828 21.9023 117.141 21.2383C116.453 20.5664 116.109 19.625 116.109 18.4141C116.109 17.1016 116.535 16.1016 117.387 15.4141C118.246 14.7266 119.488 14.375 121.113 14.3594L123.844 14.3125V13.668C123.844 12.8398 123.699 12.2266 123.41 11.8281C123.121 11.4219 122.648 11.2188 121.992 11.2188C121.383 11.2188 120.934 11.3594 120.645 11.6406C120.363 11.9141 120.188 12.3711 120.117 13.0117L116.684 12.8477C116.895 11.6133 117.457 10.6797 118.371 10.0469C119.293 9.40625 120.547 9.08594 122.133 9.08594C123.734 9.08594 124.969 9.48046 125.836 10.2695C126.703 11.0586 127.137 12.1797 127.137 13.6328V18.25C127.137 18.9609 127.215 19.4531 127.371 19.7266C127.535 19.9922 127.805 20.125 128.18 20.125C128.43 20.125 128.672 20.1016 128.906 20.0547V21.8359C128.711 21.8828 128.535 21.9258 128.379 21.9648C128.223 22.0039 128.066 22.0352 127.91 22.0586C127.754 22.082 127.586 22.1016 127.406 22.1172C127.234 22.1328 127.031 22.1406 126.797 22.1406C125.969 22.1406 125.355 21.9375 124.957 21.5312C124.566 21.125 124.332 20.5273 124.254 19.7383H124.184C123.262 21.4023 121.871 22.2344 120.012 22.2344V22.2344ZM123.844 16.1289L122.156 16.1523C121.391 16.1836 120.848 16.2695 120.527 16.4102C120.207 16.543 119.961 16.75 119.789 17.0312C119.625 17.3125 119.543 17.6875 119.543 18.1562C119.543 18.7578 119.68 19.207 119.953 19.5039C120.234 19.793 120.605 19.9375 121.066 19.9375C121.582 19.9375 122.051 19.7969 122.473 19.5156C122.902 19.2344 123.238 18.8477 123.48 18.3555C123.723 17.8555 123.844 17.3281 123.844 16.7734V16.1289ZM130.441 22V4.60938H133.734V22H130.441Z" fill="#962E40"/>
</svg>
